libs/icons/src/svg/coupon.svg

<svg width="16" height="16" viewBox="0 0 16 16" fill="none" xmlns="http://www.w3.org/2000/svg">
<path fill-rule="evenodd" clip-rule="evenodd" d="M0.666667 2C0.298477 2 0 2.29848 0 2.66667V6C0 6.36819 0.298477 6.66667 0.666667 6.66667C1.43181 6.66667 2 7.23486 2 8C2 8.76514 1.43181 9.33333 0.666667 9.33333C0.298477 9.33333 0 9.63181 0 10V13.3333C0 13.7015 0.298477 14 0.666667 14H15.3333C15.7015 14 16 13.7015 16 13.3333V10C16 9.63181 15.7015 9.33333 15.3333 9.33333C14.5682 9.33333 14 8.76514 14 8C14 7.23486 14.5682 6.66667 15.3333 6.66667C15.7015 6.66667 16 6.36819 16 6V2.66667C16 2.29848 15.7015 2 15.3333 2H0.666667ZM1.33333 5.41319V3.33333H14.6667V5.41319C13.5006 5.70013 12.6667 6.72968 12.6667 8C12.6667 9.27032 13.5006 10.2999 14.6667 10.5868V12.6667H1.33333V10.5868C2.49938 10.2999 3.33333 9.27032 3.33333 8C3.33333 6.72968 2.49938 5.70013 1.33333 5.41319ZM10.4714 6.4714C10.7318 6.21105 10.7318 5.78894 10.4714 5.52859C10.2111 5.26824 9.78895 5.26824 9.5286 5.52859L5.5286 9.52859C5.26825 9.78894 5.26825 10.211 5.5286 10.4714C5.78895 10.7317 6.21106 10.7317 6.47141 10.4714L10.4714 6.4714ZM6.33334 6.66667C6.88562 6.66667 7.33334 6.21896 7.33334 5.66667C7.33334 5.11439 6.88562 4.66667 6.33334 4.66667C5.78105 4.66667 5.33334 5.11439 5.33334 5.66667C5.33334 6.21896 5.78105 6.66667 6.33334 6.66667ZM10.6667 10.3333C10.6667 10.8856 10.2189 11.3333 9.66666 11.3333C9.11438 11.3333 8.66666 10.8856 8.66666 10.3333C8.66666 9.78104 9.11438 9.33333 9.66666 9.33333C10.2189 9.33333 10.6667 9.78104 10.6667 10.3333Z" fill="#202327"/>
</svg>

<svg xmlns="http://www.w3.org/2000/svg" viewBox="0 0 16 16" class="sageicon"><path fill-rule="evenodd" d="M.667 2A.667.667 0 0 0 0 2.667V6c0 .368.298.667.667.667C1.432 6.667 2 7.235 2 8S1.432 9.333.667 9.333A.667.667 0 0 0 0 10v3.333c0 .368.298.667.667.667h14.666a.667.667 0 0 0 .667-.667V10a.667.667 0 0 0-.667-.667C14.568 9.333 14 8.765 14 8s.568-1.333 1.333-1.333A.667.667 0 0 0 16 6V2.667A.667.667 0 0 0 15.333 2H.667Zm.666 3.413v-2.08h13.334v2.08c-1.166.287-2 1.317-2 2.587 0 1.27.834 2.3 2 2.587v2.08H1.333v-2.08c1.166-.287 2-1.317 2-2.587 0-1.27-.834-2.3-2-2.587Zm9.138 1.058a.667.667 0 1 0-.942-.942l-4 4a.667.667 0 1 0 .942.942l4-4Zm-4.138.196a1 1 0 1 0 0-2 1 1 0 0 0 0 2Zm4.334 3.666a1 1 0 1 1-2 0 1 1 0 0 1 2 0Z"/></svg>
